X: 39
T: The Cuckoo's Nest
M: 4/4
K:D
(FG)|"D"AFDF AFDF|AGFE D2EF|"C"GE=CE GECE|GFED =C2AG|
"D"FDFA dfec|dAFD "G"G2FG|"D"A2 (3FED "C"=CDEG|"D"F2D2 D2:|
|:(FG)|"D"Addc dfed|"A"c2A2 A2AB|"C"=c2cB cedc|"G"B2G2 G2GB|
"D"AGFE DFAd|fdAF "G"G2FG|"D"A2 (3FED "C"=CDEG|"D"F2D2 D2:|
